X:1
T:Title
%%score [ 1 2 3 4 ]
L:1/8
Q:1/4=120
M:2/2
K:F
V:1 treble nm="MusicXML Part"
V:2 treble-8 nm="MusicXML Part"
V:3 treble-8 nm="MusicXML Part"
V:4 bass nm="MusicXML Part"
V:1
"^Ach herzigs Herz" c8 | A6 B2 | (c3 d e2) e2 | (f3 e c2) (d2- | dc) c4 B2 | %5
w: Ach|her- zigs|Herz, * * mein|Schmerz * * er|* * ken- nen|
w: Nun|bin ich|dir * * mit|Gier * * von|* * Her- zen|
w: Nimm|an von|mir * * zu|dir * * mein|* * will- ligs|
"^Heinrich Finck (ca.1444 -1527)" c2 A2 (c3 B | AG F4) E2 |[M:2/2] F2 c2 c2 c2 | B4 c2 (d2- | %9
w: tu, ich hab *|* * * kein|Ruh, nach dir steht|mein Ver- lan|
w: g'neigt. Auf mei *|* * * nen|Eid soll mir kein|lie- bre wer|
w: Herz. Ohn' al *|* * * len|Scherz hab ich mich|dir er- ge|
 dc- c4 =B2) | c8 | z4 A4 | A4 A4 | G8 | z4 (B4 | A2) A4 G2 | A2 f2 e2 d2 | c2 B2 (A2 G2- | %18
w: |gen;|ist|Wun- der|nicht|dein|* freund- lich|G'sicht hat mir mein|Herz ge- fan *|
w: |den,|dann|du al-|lein.|Merk|* wie ich's|mein; du bist mein|Trost auf Er *|
w: |ben.|Schaff|und ge-|beut,|kein|* Dienst mich|reut; will freund- lich|mit dir le *|
"^Finck, Ach herzigs Herz  -  Seite 2" GF- F4 E2) | F8 |] %20
w: |gen.|
w: |den.|
w: |ben.|
V:2
 f8 | f6 f2 | g4 g4 | (f2 a3 g a2 | g4) z2 g2 | e2 f2 e2 c2- | c2 d2 c4 |[M:2/2] (A3 B c3) F | %8
w: Ach|her- zigs|Herz, mein|Schmerz * * *|* er-|ken- nen tu, ich|* hab kein|Ruh, * * nach|
w: Nun|bin ich|dir mit|Gier * * *|* von|Her- zen g'neigt. Auf|* mei nen|Eid * * soll|
w: Nimm|an von|mir zu|dir * * *|* mein|will- ligs Herz. Ohn'|* al len|Scherz * * hab|
 f2 g2 a4 | f2 (g2 a2 g2- | g2 e2) e4 | z4 d4 | c4 c4 | c8 | z4 (d3 e) | (fe f4) e2 | f2 F2 c2 F2 | %17
w: dir steht mein|Ver- lan * *|* * gen;|ist|Wun- der|nicht|dein *|freund * * lich|G'sicht hat mir mein|
w: mir kein lie-|bre wer * *|* * den,|dann|du al-|lein.|Merk *|wie * * ich's|mein; du bist mein|
w: ich mich dir|er- ge * *|* * ben.|Schaff|und ge-|beut,|kein *|Dienst * * mich|reut; will freund- lich|
 c2 d2 (e3 f | d2 c3 B G2 | A3 B) c4 |] %20
w: Herz ge- fan *||* * gen.|
w: Trost auf Er *||* * den.|
w: mit dir le *||* * ben.|
V:3
"^c.f." A8 | c6 d2 | e4 e4 | A4 z2 f2 | e4 d4 | c4 A2 (c2- | cB A2) G4 |[M:2/2] F4 z2 c2 | %8
w: Ach|her- zigs|Herz, mein|Schmerz er-|ken- nen|tu, ich hab|* * * kein|Ruh, nach|
w: Nun|bin ich|dir mit|Gier von|Her- zen|g'neigt. Auf mei|* * * nen|Eid soll|
w: Nimm|an von|mir zu|dir mein|will- ligs|Herz. Ohn' al|_ _ _ len|Scherz hab|
 d4 c2 f2- | f2 e2 d4 | c8 | z4 f4 | f4 f4 | e8 | z4 d4 | (c3 A) B4 | A4 z2 f2 | e2 d2 c2 B2 | %18
w: dir steht mein|* Ver- lan-|gen;|ist|Wun- der|nicht|dein|freund * lich|G'sicht hat|mir mein Herz ge-|
w: mir kein lie-|* bre wer|den,|dann|du al-|lein.|Merk|wie * ich's|mein; du|bist mein Trost auf|
w: ich mich dir|* er- ge|ben.|Schaff|und ge-|beut,|kein|Dienst * mich|reut; will|freund- lich mit dir|
 (A4 G4) | F8 |] %20
w: fan *|gen.|
w: Er *|den.|
w: le *|ben.|
V:4
 F,8 | F,6 F,2 | C,4 C,4 | (D,3 E, F,2) F,2 | G,2 E,2 (F,2 G,2 | A,2) F,2 (A,3 G, | F,3 E,) C,4 | %7
w: Ach|her- zigs|Herz, mein|Schmerz * * er-|ken- nen tu, *|* ich hab *|* * kein|
w: Nun|bin ich|dir mit|Gier * * von|Her- zen g'neigt. *|* Auf mei *|* * nen|
w: Nimm|an von|mir zu|dir * * mein|will- ligs Herz. *|* Ohn' al *|* * len|
[M:2/2] (C3 B,A,G, F,2) | B,,4 F,2 D,2- | D,2 E,2 F,2 G,2 | C,8 | z4 D,4 | F,4 F,4 | C,8 | z4 G,4 | %15
w: Ruh, * * * *|nach dir steht|* mein Ver- lan-|gen;|ist|Wun- der|nicht|dein|
w: Eid * * * *|soll mir kein|* lie- bre wer|den,|dann|du al-|lein.|Merk|
w: Scherz * * * *|hab ich mich|* dir er- ge|ben.|Schaff|und ge-|beut,|kein|
 (A,2 F,2) G,4 | F,2 D,2 C,2 B,,2 | C,2 G,2 (C,3 D,/E,/ | F,4 C,4) | F,,8 |] %20
w: freund * lich|G'sicht hat mir mein|Herz ge- fan * *||gen.|
w: wie * ich's|mein; du bist mein|Trost auf Er * *||den.|
w: Dienst * mich|reut; will freund- lich|mit dir le * *||ben.|

